src/_icons/ball-football.svg

---
category: Sport
---
<svg>
  <circle cx="12" cy="12" r="9" />
  <path d="M12 7l4.76 3.45l-1.76 5.55h-6l-1.76 -5.55z" />
  <path d="M12 7v-4m3 13l2.5 3m-.74 -8.55l3.74 -1.45m-11.44 7.05l-2.56 2.95m.74 -8.55l-3.74 -1.45" />
</svg>

---
category: Sport
---
<svg>
  <circle cx="12" cy="12" r="9"/>
  <path d="M12 7l4.76 3.45L15 16H9l-1.76-5.55z"/>
  <path d="M12 7V3M15 16l2.5 3M16.76 10.45L20.5 9M9.06 16.05L6.5 19M7.24 10.45L3.5 9"/>
</svg>
